X: 34056
T: Reel De La Broue
R: reel
M: 4/4
K: Dmajor
|:dcdB A2 FA|GABG A4|dcdB ABAG|F z E z D4|
dcdB A2 FA|GABG A4|dcdB ABAG|1 F z E z D4:|2 F z E z D2 DE||
|:F z FD E2 DE|FAFD E2 DE|FAdB ABAG|F z E z D2 DE|
F z FD E2 DE|FAFD E2 DE|FAdf edcB|1 AGFE D2 DE:|2 AGFE D4||

